outputs/icons/editor/distribute_horizontal_sharp.svg

<svg xmlns="http://www.w3.org/2000/svg" width="1200" height="1200" fill="none"><g clip-path="url(#a)"><path fill="#000" d="M200 1100H100V100h100zm900-1000h-100v1000h100zM675 350H525v500h150z"/></g><defs><clipPath id="a"><path fill="#fff" d="M0 0h1200v1200H0z"/></clipPath></defs></svg>

<svg width="1200" height="1200" viewBox="0 0 1200 1200" fill="none" xmlns="http://www.w3.org/2000/svg"><g clip-path="url(#clip0_238_3216)"><path d="M200 1100H100V100H200V1100ZM1100 100H1000V1100H1100V100ZM675 350H525V850H675V350Z" fill="black"/></g><defs><clipPath id="clip0_238_3216"><path width="24" fill="white" d="M0 0H1200V1200H0V0z"/></clipPath></defs></svg>
